X:561
T:Reel 561
M:4/4
K:Gmaj
L:1/8
G2BG DGBd|cBAG FGAF|G2Bd gdBd|ccAB G2ED|G2BG dGBG|ABAG F2F2|g2Bd edBd|cBAF G2|ef|gfeg fddf|gfef g2ef|gfeg fedc|BGAF G2ef|gfeg fddf|gfef g2ga|bgaf gfed|egfa g2e2|
